src/assets/icons/states/exposure-alert.svg

<?xml version="1.0" encoding="UTF-8"?>
<svg width="40px" height="40px" viewBox="0 0 40 40" version="1.1" xmlns="http://www.w3.org/2000/svg" xmlns:xlink="http://www.w3.org/1999/xlink">
    <title>notification exposure alert</title>
    <g id="notification-exposure-alert" stroke="none" stroke-width="1" fill="none" fill-rule="evenodd">
        <path d="M22,24.9996142 C22,26.1041837 21.1045695,26.9996142 20,26.9996142 C18.9456382,26.9996142 18.0818349,26.1837364 18.0054857,25.1488766 L18,24.9996142 L22,24.9996142 Z M21.6290049,11.2682445 C22.1066388,11.4315373 22.547119,11.6624747 22.9412524,11.9481536 L21.7866582,14.1284491 C20.7530292,16.0808595 21.4978487,18.5015227 23.450259,19.5351517 C23.9798966,19.815548 24.5651497,19.9730352 25.1626077,19.996831 C25.3696319,20.7032669 25.7691923,21.3456854 26.3226732,21.8478319 L26.5,21.9996142 L27,21.9996142 C27.5329418,21.9932816 27.9756398,22.409206 28.0025237,22.941507 C28.0276153,23.4383212 27.6762562,23.9209543 27.1218468,23.9830973 L27,23.9898295 L26.998,23.9884134 L26.9742857,23.9996142 L13,23.9996142 C12.4477153,23.9996142 12,23.551899 12,22.9996142 C12,22.4867784 12.3860402,22.0641071 12.8833789,22.0063419 L13,21.9996142 L13.5,21.9996142 C14.3503609,21.3132486 14.8837639,20.3140663 14.9849702,19.2325451 L15,18.9996142 L15,16.1206142 C15,15.0704137 15.3242098,13.9808372 15.8637419,13.2181828 L16.0030478,13.0345421 L16.146376,12.8566445 C17.4696822,11.2880276 19.6793387,10.6016957 21.6290049,11.2682445 Z" id="Combined-Shape" fill="#FFFFFF" fill-rule="nonzero"></path>
        <g id="Combined-Shape" transform="translate(23.000000, 3.000000)" fill="#FFFFFF">
            <path d="M7.06422456,0.506953959 C8.04042974,-0.00986054645 9.25076133,0.362549174 9.76757583,1.33875435 L9.76757583,1.33875435 L15.4457659,12.0642246 C15.5983966,12.352527 15.6781901,12.6737878 15.6781901,13 C15.6781901,14.1045695 14.7827596,15 13.6781901,15 L13.6781901,15 L2.32180989,15 C1.99559765,15 1.67433688,14.9202065 1.38603445,14.7675758 C0.409829272,14.2507613 0.0374195517,13.0404297 0.554234057,12.0642246 L0.554234057,12.0642246 L6.23242417,1.33875435 C6.42003794,0.984372772 6.70984298,0.694567736 7.06422456,0.506953959 Z M9,11 L7,11 L7,13 L9,13 L9,11 Z M9,4 L7,4 L7,9 L9,9 L9,4 Z"></path>
        </g>
    </g>
</svg>

<svg width="40" height="40" xmlns="http://www.w3.org/2000/svg"><g fill="#FFF" fill-rule="evenodd"><path d="M22 25a2 2 0 01-3.995.149l-.005-.15h4zm-.371-13.732c.478.164.918.394 1.312.68l-1.154 2.18a4 4 0 003.376 5.869 4.032 4.032 0 001.16 1.85L26.5 22h.5a.992.992 0 011.003.942.993.993 0 01-.881 1.041L27 23.99l-.002-.002-.024.012H13a1 1 0 01-.117-1.994L13 22h.5a4.04 4.04 0 001.485-2.767L15 19v-2.88c0-1.05.324-2.14.864-2.902l.139-.183.143-.178c1.324-1.569 3.533-2.255 5.483-1.589z" fill-rule="nonzero"/><path d="M30.064 3.507a2 2 0 012.704.832l5.678 10.725A2 2 0 0136.678 18H25.322a2 2 0 01-1.768-2.936L29.232 4.34a2 2 0 01.832-.832zM32 14h-2v2h2v-2zm0-7h-2v5h2V7z"/></g></svg>
